X: 42083
T: Waltzing With A
R: waltz
M: 3/4
K: Fmajor
(3c/d/e/|:"F"f>cA "Am"e>cA|"Bb"d>dc/B/ "F"A3|"Bb"BB/c/d "F"cA2|"Gm"B>A (3G/A/B/ "C"c>cd/e/|
"F"f>g a "Am"eag|"Bb"(3f/g/f/ed "F"c3|"Bb"dd/e/f "F"cA>c|1 "C"B/A/G/F/E|"F"F2 (3c/d/e/:|2 "C"B/A/G/F/E "F"F>FF/E/||
|:"Bb"D/E/FD/F/ "C"E/F/G E/G/|"Dm"F/A/dc "F"A2(3A/B/c/|"Bb"d>Bc df>g|"Gm" (3f/g/f/e"Bb"d "C"c>BA/G/|
"Bb"F/E/F/B,/D/F/ "C"G/F/G/C/E/G/|"Dm"A/G/A/d/c/B/ "F"A2 A|"Bb"B>cd "F"cA>c|1 "C"B/A/G/F/E "F"F>FF/E/:|2 "C"BAG "F"F>A (3c/d/e/||

